assets/img/cadeado.svg

<svg viewBox="0 0 448 512" xmlns="http://www.w3.org/2000/svg" width="1" height="1"><path d="M384 192c35.3 0 64 28.7 64 64v192c0 35.3-28.7 64-64 64H64c-35.35 0-64-28.7-64-64V256c0-35.3 28.65-64 64-64h320zM256 320c0-17.7-14.3-32-32-32s-32 14.3-32 32v64c0 17.7 14.3 32 32 32s32-14.3 32-32v-64z" fill="#FDFFFF"/><path d="M224 64c-44.2 0-80 35.82-80 80v48H80v-48C80 64.47 144.5 0 224 0s144 64.47 144 144v48h-64v-48c0-44.18-35.8-80-80-80z" fill="#FDFFFF" opacity=".4"/></svg>

<svg xmlns:xlink="http://www.w3.org/1999/xlink" data-v-28dce3aa=""  viewBox="0 0 448 512"  xmlns="http://www.w3.org/2000/svg" width="1"  height="1" ><path d="M384 192C419.3 192 448 220.7 448 256V448C448 483.3 419.3 512 384 512H64C28.65 512 0 483.3 0 448V256C0 220.7 28.65 192 64 192H384zM256 320C256 302.3 241.7 288 224 288C206.3 288 192 302.3 192 320V384C192 401.7 206.3 416 224 416C241.7 416 256 401.7 256 384V320z" fill="#FDFFFF"></path><path d="M224 64C179.8 64 144 99.82 144 144V192H80V144C80 64.47 144.5 0 224 0C303.5 0 368 64.47 368 144V192H304V144C304 99.82 268.2 64 224 64z" fill="#FDFFFF" opacity="0.4"></path></svg>
